Obsidian/actions/24s/password-generator.svg

<svg height="24" width="24" xmlns="http://www.w3.org/2000/svg"><path d="m2.5 7c-.831 0-1.5.669-1.5 1.5v11c0 .831.669 1.5 1.5 1.5h11c.831 0 1.5-.669 1.5-1.5v-11c0-.831-.669-1.5-1.5-1.5zm9 2c.828 0 1.5.6716 1.5 1.5 0 .828-.672 1.5-1.5 1.5s-1.5-.672-1.5-1.5c0-.8284.672-1.5 1.5-1.5zm-7 7c.8284 0 1.5.672 1.5 1.5s-.6716 1.5-1.5 1.5-1.5-.672-1.5-1.5.6716-1.5 1.5-1.5z" fill="#bebebe" transform="translate(4 -2)"/></svg>

<svg xmlns="http://www.w3.org/2000/svg" width="24" height="24" version="1.1">
 <defs>
  <style id="current-color-scheme" type="text/css">
   .ColorScheme-Text { color:#bebebe; } .ColorScheme-Highlight { color:#4285f4; }
  </style>
 </defs>
 <g transform="translate(4,-2)">
  <path style="fill:currentColor" class="ColorScheme-Text" d="M 2.5,7 C 1.669,7 1,7.669 1,8.5 V 19.5 C 1,20.331 1.669,21 2.5,21 H 13.5 C 14.331,21 15,20.331 15,19.5 V 8.5 C 15,7.669 14.331,7 13.5,7 Z M 11.5,9 C 12.328,9 13,9.6716 13,10.5 13,11.328 12.328,12 11.5,12 10.672,12 10,11.328 10,10.5 10,9.6716 10.672,9 11.5,9 Z M 4.5,16 C 5.3284,16 6,16.672 6,17.5 6,18.328 5.3284,19 4.5,19 3.6716,19 3,18.328 3,17.5 3,16.672 3.6716,16 4.5,16 Z"/>
 </g>
</svg>
